flaticon/stationery/pantone-1.svg

<svg xmlns="http://www.w3.org/2000/svg" width="32" height="32" viewBox="0 0 24 24">
    <path d="M0 0L0 10.210938 24 10.210938 24 0zM22.980469 9.191406L1.019531 9.191406 1.019531 1.019531 22.980469 1.019531zM.511719 12.636719L23.488281 12.636719 23.488281 13.660156.511719 13.660156zM.511719 16.085938L23.488281 16.085938 23.488281 17.105469.511719 17.105469zM.511719 19.53125L23.488281 19.53125 23.488281 20.554688.511719 20.554688zM.511719 22.980469L23.488281 22.980469 23.488281 24 .511719 24zM.511719 22.980469"/>
    <path d="M 18.894531 7.660156 C 20.300781 7.660156 21.445312 6.515625 21.445312 5.105469 C 21.445312 3.699219 20.300781 2.554688 18.894531 2.554688 C 17.484375 2.554688 16.339844 3.699219 16.339844 5.105469 C 16.339844 6.515625 17.484375 7.660156 18.894531 7.660156 Z M 18.894531 3.574219 C 19.738281 3.574219 20.425781 4.261719 20.425781 5.105469 C 20.425781 5.949219 19.738281 6.636719 18.894531 6.636719 C 18.050781 6.636719 17.363281 5.949219 17.363281 5.105469 C 17.363281 4.261719 18.050781 3.574219 18.894531 3.574219 Z M 18.894531 3.574219"/>
</svg>

<svg xmlns="http://www.w3.org/2000/svg" width="32" height="32" viewBox="0 0 24 24">
    <path d="M0 0v10.21h24V0zm22.98 9.191H1.02V1.02h21.96zm0 0M.512 12.637h22.976v1.023H.512zm0 0M.512 16.086h22.976v1.02H.512zm0 0M.512 19.531h22.976v1.024H.512zm0 0M.512 22.98h22.976V24H.512zm0 0"/>
    <path d="M18.895 7.66a2.555 2.555 0 0 0 2.55-2.555 2.554 2.554 0 0 0-2.55-2.55 2.555 2.555 0 0 0-2.555 2.55 2.556 2.556 0 0 0 2.555 2.555zm0-4.086c.843 0 1.53.688 1.53 1.531 0 .844-.687 1.532-1.53 1.532a1.534 1.534 0 0 1-1.532-1.532c0-.843.688-1.53 1.532-1.53zm0 0"/>
</svg>
